X:1
T:Title
%%score { ( 1 4 5 ) | ( 2 3 ) }
L:1/8
Q:1/4=100
M:6/8
K:C
V:1 treble nm="Grand Piano"
V:4 treble 
V:5 treble 
V:2 bass 
V:3 bass 
V:1
 [EG][EG]G GGG | GGG GGG | GGG [FG]GG | GGG GGG | [EG][EG]G GGG | GGG [EGB][GB][GB] | %6
w: Ira~B.~Wilson * * * * *||||||
 [_EAB][AB][AB] [EAB][AB][AB] |[M:15/16] [EGB][GB]/-[GB]/[GB][FGd]3/2- [FGd]3 |[M:3/4] c3 B3 | %9
w: |||
 A3 E3 | G6 | D6[K:bass] | z G, G,[K:treble]D EG | e3 d3 | d6- | d6[K:bass][K:treble] | f4 z2 | %17
w: ||||||||
 e3 d3 | c4 z2 | B3 A3 | G3 .A3 |[M:13/16] [Ge]/-[Ge]/-[Ge]-<[Ge]d/-d-<d z |[M:3/4] c6- | c6 |] %24
w: |||||||
V:2
 [C,C][D,C][E,CE] [CE][CE][K:treble][A,CE] | [CE][CE][CE] [CE][CE][CE] | %2
 [B,F][B,F][B,F] B,[B,F][B,F] | [CE][CE][CE] [CE][CE][CE] | %4
 [C,C][D,C][E,CE] [CE][CE][K:treble][A,CE] | EEE z EE | z _EE[K:bass] z EE | %7
[M:15/16] B,3/2-B,3/2-B,3/2- B,3 |[M:3/4][K:treble] z E .E2 EE | z C .C2[K:bass] G,G, | %10
 z B, B,B, B,B, | z [F,G,] [F,G,][F,G,] [F,G,][F,G,] | z E, E,D, E,G, | z ^F .F2 FF | %14
 z [FG] .[FG]2 [FG][FG] | z [FG] .[FG]2 [FG][FG] | z[K:treble] [FA] [FA][K:bass] E,2 F, | %17
 z E .E2[K:treble] [E^G][EG] | z [CE] [CE] B,,2 C, | z C .C2 CC | G,,G, G,[G,B,] G,[G,B,] | %21
[M:13/16] z/ z/ z/ z/ z[K:treble] F/-F-<F[K:bass] z |[M:3/4] z E .E2 EE | [C,,C,]2 z .[C,,C,]3 |] %24
V:3
 z3 .G,3[K:treble] | B,3 A,3 | G,3 D,3 | G,6 | z3 .G,3[K:treble] | B,3 G,3 | B,3[K:bass] ^F,3 | %7
[M:15/16] z E/-E/EG,,3/2- G,,3 |[M:3/4][K:treble] C3 B,3 | A,3[K:bass] E,3 | G,6 | D,6 | C,4 z2 | %13
 E3 D3 | D4 z2 | x6 | [D,,D,]4[K:treble][K:bass] z2 | ^G,3 E,3[K:treble] | [A,,,A,,]4 z2 | %19
 D,3 D,,3 | x6 |[M:13/16] G,,G,G,[K:treble][G,B,]G,3/2[K:bass][G,B,E] |[M:3/4] [C,C]3 G,,3 | x6 |] %24
V:4
 x6 | x6 | x6 | x6 | x6 | x6 | x6 |[M:15/16] x15/2 |[M:3/4] z G .G2 GG | z E .E2 CC | z F FF FF | %11
 z[K:bass] B, B,B, B,B, | C4[K:treble] z2 | z c .c2 cc | z B .B2 BB | %15
 z B .B2[K:bass][K:treble] BB | z d d E2 F | z B .B2 BB | z A A B,2 C | z ^F .F2 FF | %20
 F-[B,F-] [B,F-]2 [B,F-][Fc] |[M:13/16] z B,B, z B,3/2c |[M:3/4] z G .G2 GG | [EG]2 z .[EG]3 |] %24
V:5
 x6 | x6 | x6 | x6 | x6 | x6 | x6 |[M:15/16] x15/2 |[M:3/4] x6 | x6 | x6 | x[K:bass] x5 | %12
 x3[K:treble] x3 | x6 | z2 z D,3 | G,3[K:bass] G,,3[K:treble] | x6 | x6 | x6 | x6 | x6 | %21
[M:13/16] x13/2 |[M:3/4] z2 z G,3 | x6 |] %24

